X: 296
T: A Night In Garden Of Eden
R: polka
M: 2/4
K: Dminor
|:Ade|f2 ed|f2 ed|ef d2|z cfg|
a2 gf|a2 gf|ga f2|zcfa|
c'2 b2|a2 gf|fg fe|d3 c|
f g2 f|(3agf (3fed|d4|z:|
|:A|Ad dd|dA f/e/d|^cd BA|
G3 G|^FG AB|^cd cB|A4-
A2 C2|CF FA|cc BA|dG GG|GA/G/ FE|
D2 AF|1 gg fg|a4|Td'3:|2 gg fe|d3||
|:aba|Td'4|z afe|d4|z aba|
f'4-|(3f'e'd' (3^c'd'e'|d'4|zc'=bc'|
d'_e'd'c'|=bc'_ba|=bc'_ba|g3 f|
f g2 f|(3agf (3fed|d4-|d:|

